src/assets/phone-icon.svg

<svg viewBox="0 0 48 48" xmlns="http://www.w3.org/2000/svg" xmlns:xlink="http://www.w3.org/1999/xlink" >
<defs>



 <path fill="#000000" id="i-419" d="M46.557,37.182l-9-6.014c-1.498-1.002-2.941-0.967-4.189,0.059c-3.504,2.873-5.582,2.049-5.92,1.879 c-1.982-0.992-3.854-1.928-6.741-4.813c-3.584-3.586-4.878-5.875-5.812-7.74c-0.373-0.746-0.803-3.254,1.65-5.869 c1.147-1.221,1.253-2.721,0.299-4.221c-0.735-1.156-0.735-1.156-1.313-2.006c-0.57-0.84-1.709-2.518-4.713-7.014 C10.169,0.473,9.247,0,8,0C6.586,0,5.87,0.717,5.293,1.293l-3,3C0.169,6.416,0,7.633,0,9c0,1.721,2.485,12.939,14.292,24.705 C26.061,45.514,37.268,48,38.988,48h0.066c1.355-0.02,2.559-0.199,4.652-2.293l3-3C47.283,42.131,48,41.414,48,40 C48,38.752,47.527,37.83,46.557,37.182z M45.293,41.293l-3,3c-1.684,1.684-2.416,1.695-3.305,1.707 c-0.123-0.004-10.891-1.273-23.282-13.709C3.415,20.043,2.002,9.096,2,9c0-0.887,0-1.586,1.706-3.293l3-3C7.233,2.182,7.443,2,8,2 c0.653,0,0.927,0.213,1.156,0.555c3.009,4.504,4.15,6.186,4.721,7.025c0.563,0.828,0.563,0.828,1.28,1.957 c0.568,0.893,0.302,1.383-0.07,1.779c-3.121,3.324-2.66,6.771-1.981,8.131c1.003,2.006,2.39,4.463,6.187,8.26 c3.115,3.115,5.223,4.168,7.26,5.188c0.561,0.279,1.293,0.434,2.063,0.434c1.326,0,3.445-0.443,6.02-2.555 c0.365-0.301,0.625-0.336,0.789-0.336c0.287,0,0.631,0.133,1.021,0.395l9,6.012C45.787,39.072,46,39.346,46,40 C46,40.557,45.818,40.768,45.293,41.293z"/> 
</defs>

<use x="0" y="0" xlink:href="#i-419"/>

</svg>

<svg width="48" height="48" viewBox="0 0 48 48" fill="none" xmlns="http://www.w3.org/2000/svg">
<g clip-path="url(#clip0_3_543)">
<path d="M46.557 37.182L37.557 31.168C36.059 30.166 34.616 30.201 33.368 31.227C29.864 34.1 27.786 33.276 27.448 33.106C25.466 32.114 23.594 31.178 20.707 28.293C17.123 24.707 15.829 22.418 14.895 20.553C14.522 19.807 14.092 17.299 16.545 14.684C17.692 13.463 17.798 11.963 16.844 10.463C16.109 9.307 16.109 9.307 15.531 8.457C14.961 7.617 13.822 5.939 10.818 1.443C10.169 0.473 9.247 0 8 0C6.586 0 5.87 0.717 5.293 1.293L2.293 4.293C0.169 6.416 0 7.633 0 9C0 10.721 2.485 21.939 14.292 33.705C26.061 45.514 37.268 48 38.988 48H39.054C40.409 47.98 41.613 47.801 43.706 45.707L46.706 42.707C47.283 42.131 48 41.414 48 40C48 38.752 47.527 37.83 46.557 37.182ZM45.293 41.293L42.293 44.293C40.609 45.977 39.877 45.988 38.988 46C38.865 45.996 28.097 44.727 15.706 32.291C3.415 20.043 2.002 9.096 2 9C2 8.113 2 7.414 3.706 5.707L6.706 2.707C7.233 2.182 7.443 2 8 2C8.653 2 8.927 2.213 9.156 2.555C12.165 7.059 13.306 8.741 13.877 9.58C14.44 10.408 14.44 10.408 15.157 11.537C15.725 12.43 15.459 12.92 15.087 13.316C11.966 16.64 12.427 20.087 13.106 21.447C14.109 23.453 15.496 25.91 19.293 29.707C22.408 32.822 24.516 33.875 26.553 34.895C27.114 35.174 27.846 35.329 28.616 35.329C29.942 35.329 32.061 34.886 34.636 32.774C35.001 32.473 35.261 32.438 35.425 32.438C35.712 32.438 36.056 32.571 36.446 32.833L45.446 38.845C45.787 39.072 46 39.346 46 40C46 40.557 45.818 40.768 45.293 41.293Z" fill="white"/>
</g>
<defs>
<clipPath id="clip0_3_543">
<rect width="48" height="48" fill="white"/>
</clipPath>
</defs>
</svg>
